X: 5
T: The Seven Stars
T: The Moon and Seven Stars
P: piffero primo b0079
O: Rutherford 1756
%R: jig
F: http://ancients.sudburymuster.org/mus/acn/pdf/fyf08F.pdf
Z: 2020 John Chambers <jc:trillian.mit.edu>
M: 6/8
L: 1/8
K: D
z |\
d2A A2F | GAB A3 | Bcd efg | fed cBA |\
d2A A2F | GAB A3 | Bcd efg | Adc d2 :|
|: z |\
e2A A2f | efg Tf3 | efg fed | cde A3 |\
BGB AFA | BGB A3  | Bcd cde | Adc d2 :|

% %sep 1 1 200
% %center - - - - - - - - - -
% Whatever we want at the bottom of each set belongs here.
